X: 49061
T: Mr. John Trotter of Castelaw's Hornpipe
C: Robert Mackintosh
R: hornpipe, reel
B: RSCDS 49-6
Z: 2015 by John Chambers <jc:trillian.mit.edu>
N: Tune for the dance The Ruby Rant
M: 4/4
L: 1/8
K: F
"C7"FG |\
"F"AfcA "C7"BGcB | "F"A2 F4 GA |\
"Gm"Bcdc "Bb/Gm"BAGF | "C"E2 C4 F_E |
"Bb"DFBd "C7"=EGc=e | "Dm"FAdf "G7"=Bagf |\
"Dm7"fedc "G7"edc=B | "C"c2c2 c2 :|
|: cB |\
"F"ABcB "A/F7"AGF_E | "Bb"D2D2- "A/D2"D2C2 |\
"Gm"B,2dc "Bb/Gm"BAGF | "C"E2C2- "E/C7"C2[C2B,2] |
"F"A,F"Gm"B,F "A/F"CF"Bb"DF | "C"Ec"Dm7"Fc "E/C"Gc"F"Ac |\
"Gm7"dBbg "C7"afge | "F"f2"Bb"f2 "F"f2 :|
